brandFactory_export/1.Light/Consulta canjes puntos Movistar_1Light.svg

<?xml version="1.0" encoding="UTF-8"?>
<svg width="24px" height="24px" viewBox="0 0 24 24" version="1.1" xmlns="http://www.w3.org/2000/svg" xmlns:xlink="http://www.w3.org/1999/xlink">
    <title>1.Light/Consulta canjes puntos Movistar_1Light</title>
    <g id="Symbols" stroke="none" stroke-width="1" fill="none" fill-rule="evenodd">
        <g id="1.Light/Consulta-canjes-puntos-Movistar_1Light" fill="#5CB615" fill-rule="nonzero">
            <path d="M15.9932773,2.74285714 C19.5929587,6.32604136 19.6754534,12.1082769 16.2248664,15.7883635 L23.5294118,23.0890756 C23.6605042,23.2201681 23.6605042,23.4319328 23.5327731,23.5630252 C23.4689076,23.6268908 23.3848739,23.6638655 23.2941176,23.6638655 C23.2033613,23.6638655 23.1193277,23.6268908 23.0554622,23.5630252 L15.7514339,16.2619008 C14.0256072,17.8790842 11.7429418,18.779529 9.37142857,18.7731433 C4.19495798,18.7731433 1.82824422e-10,14.5781513 1.82824422e-10,9.40168067 C1.82824422e-10,6.91764706 0.988235294,4.53445378 2.74285714,2.77647059 C6.39327731,-0.890756303 12.3260504,-0.907563025 15.9932773,2.74285714 Z M9.37142857,0.705845674 C4.56806723,0.705845674 0.672268908,4.59831933 0.672268908,9.40168067 C0.672268908,11.707563 1.58991597,13.9226891 3.22016807,15.5529412 C6.61512605,18.9512605 12.1243697,18.9512605 15.5193277,15.5529412 C18.9142857,12.1546218 18.9176471,6.6487395 15.5193277,3.25378151 C13.892437,1.61680672 11.6773109,0.699159664 9.37142857,0.705845674 Z M9.63361345,4.23529412 C9.8184874,4.23529412 9.9697479,4.38655462 9.9697479,4.57142857 L9.9705445,5.02420177 C10.6005831,5.08077424 11.1832106,5.26139014 11.6470588,5.54957983 C11.8386555,5.66722689 11.9462185,5.83193277 11.9462185,6.01344538 C11.9462185,6.2789916 11.7310924,6.4907563 11.4655462,6.49411765 C11.3579832,6.4907563 11.2537815,6.4605042 11.1596639,6.40672269 L11.1563025,6.40336134 C10.7529103,6.18577402 10.3672998,6.05176085 9.96972474,5.99485525 L9.969,8.69251365 L10.2237023,8.73139445 C10.8998444,8.84950721 11.4237162,9.08123249 11.7882353,9.42184874 C12.1983193,9.80504202 12.4067227,10.3260504 12.4067227,10.9647059 C12.4067227,12.3265421 11.4885441,13.2210419 9.97040472,13.379709 L9.9697479,14.1579832 C9.9697479,14.3428571 9.8184874,14.4941176 9.63361345,14.4941176 C9.4487395,14.4941176 9.29747899,14.3428571 9.29747899,14.1579832 L9.297,13.3985136 L9.20048403,13.394995 C8.39801681,13.3408739 7.62386555,13.0719328 6.96134454,12.6151261 C6.79663866,12.5008403 6.71596639,12.3529412 6.71596639,12.1647059 C6.71932773,11.8890756 6.94453782,11.6705882 7.22016807,11.6739496 C7.34117647,11.6773109 7.45546218,11.7142857 7.55630252,11.7815126 C8.1335919,12.1653954 8.71854541,12.383222 9.29779995,12.4327653 L9.297,9.60751365 L9.17854075,9.5917411 C8.11314017,9.43018487 6.91428571,8.90420168 6.91428571,7.37142857 C6.91428571,6.00730018 7.84207276,5.10253215 9.29646949,5.01245299 L9.29747899,4.57142857 C9.29747899,4.38655462 9.4487395,4.23529412 9.63361345,4.23529412 Z M9.97128333,9.70179859 L9.97009812,12.4168571 C10.3600231,12.364423 10.6884729,12.2361169 10.9344538,12.0403361 C11.2504202,11.7882353 11.4151261,11.4319328 11.4151261,11.0117647 C11.4151261,10.4912621 11.2367048,9.93273523 9.97128333,9.70179859 Z M7.90588235,7.31428571 C7.90588235,7.79392372 8.07326125,8.36013702 9.29576896,8.59579012 L9.29705768,5.97185652 C8.43417791,6.04329959 7.90588235,6.54384759 7.90588235,7.31428571 Z" id="Consulta-canjes-puntos-Movistar_1Light"></path>
        </g>
    </g>
</svg>

<svg width="24" height="24" viewBox="0 0 24 24" xmlns="http://www.w3.org/2000/svg"><path d="M15.993 2.743c3.6 3.583 3.682 9.365.232 13.045l7.304 7.301a.336.336 0 01-.235.575.336.336 0 01-.239-.101l-7.304-7.301a9.296 9.296 0 01-6.38 2.511A9.37 9.37 0 012.743 2.776c3.65-3.667 9.583-3.684 13.25-.033zM9.371.706C4.568.706.672 4.598.672 9.402c0 2.306.918 4.52 2.548 6.15a8.693 8.693 0 0012.3 0c3.394-3.397 3.398-8.903 0-12.298A8.635 8.635 0 009.37.706zm.263 3.53c.184 0 .336.15.336.335v.453c.63.057 1.213.237 1.677.526.192.117.3.282.3.463a.483.483 0 01-.481.481.656.656 0 01-.306-.087l-.004-.004a3.523 3.523 0 00-1.186-.408l-.001 2.698.255.038c.676.119 1.2.35 1.564.69.41.384.619.905.619 1.544 0 1.362-.918 2.256-2.437 2.415v.778a.337.337 0 01-.336.336.337.337 0 01-.337-.336v-.76l-.097-.003a4.476 4.476 0 01-2.239-.78.52.52 0 01-.245-.45.496.496 0 01.504-.491c.121.003.235.04.336.108.578.383 1.163.601 1.742.65l-.001-2.824-.118-.016c-1.066-.162-2.265-.688-2.265-2.22 0-1.365.928-2.27 2.382-2.36l.001-.44c0-.185.152-.337.337-.337zm.337 5.466v2.715c.389-.053.717-.18.963-.377.316-.252.481-.608.481-1.028 0-.52-.178-1.08-1.444-1.31zM7.906 7.314c0 .48.167 1.046 1.39 1.282l.001-2.624c-.863.071-1.391.572-1.391 1.342z" fill="#5CB615" fill-rule="nonzero"/></svg>
